; G-Code generated by Simplify3D(R) Version 3.0.2
; Jan 10, 2016 at 12:59:20 PM
; Settings Summary
;   processName,Process1
;   applyToModels,gimbaltest
;   profileName,.20
;   profileVersion,2016-01-03 17:49:34
;   baseProfile,Monoprice 3D Printer
;   printMaterial,PLA
;   printQuality,High
;   printExtruders,Left Extruder Only
;   extruderName,Right Extruder,Left Extruder
;   extruderToolheadNumber,0,1
;   extruderDiameter,0.4,0.4
;   extruderAutoWidth,0,0
;   extruderWidth,0.4,0.4
;   extrusionMultiplier,1,1
;   extruderUseRetract,1,1
;   extruderRetractionDistance,1,1
;   extruderExtraRestartDistance,0,0
;   extruderRetractionZLift,0,0
;   extruderRetractionSpeed,1200,1200
;   extruderUseCoasting,0,0
;   extruderCoastingDistance,0.2,0.2
;   extruderUseWipe,0,0
;   extruderWipeDistance,5,5
;   primaryExtruder,1
;   layerHeight,0.2
;   topSolidLayers,4
;   bottomSolidLayers,4
;   perimeterOutlines,2
;   printPerimetersInsideOut,1
;   startPointOption,2
;   startPointOriginX,0
;   startPointOriginY,0
;   startPointOriginZ,300
;   sequentialIslands,0
;   spiralVaseMode,0
;   firstLayerHeightPercentage,100
;   firstLayerWidthPercentage,100
;   firstLayerUnderspeed,0.3
;   useRaft,0
;   raftExtruder,1
;   raftLayers,2
;   raftOffset,3
;   raftSeparationDistance,0.12
;   raftInfill,35
;   disableRaftBaseLayers,0
;   useSkirt,1
;   skirtExtruder,1
;   skirtLayers,1
;   skirtOutlines,2
;   skirtOffset,3
;   usePrimePillar,0
;   primePillarExtruder,999
;   primePillarWidth,12
;   primePillarLocation,7
;   primePillarSpeedMultiplier,1
;   useOozeShield,0
;   oozeShieldExtruder,999
;   oozeShieldOffset,2
;   oozeShieldOutlines,1
;   oozeShieldSidewallShape,1
;   oozeShieldSidewallAngle,30
;   oozeShieldSpeedMultiplier,1
;   infillExtruder,1
;   internalInfillPattern,Full Honeycomb
;   externalInfillPattern,Rectilinear
;   infillPercentage,30
;   outlineOverlapPercentage,30
;   infillExtrusionWidthPercentage,100
;   minInfillLength,5
;   infillLayerInterval,1
;   infillAngles,0,120,-120
;   overlapInfillAngles,0
;   generateSupport,1
;   supportExtruder,1
;   supportInfillPercentage,20
;   supportExtraInflation,0
;   denseSupportLayers,0
;   denseSupportInfillPercentage,30
;   supportLayerInterval,1
;   supportHorizontalPartOffset,0.3
;   supportUpperSeparationLayers,1
;   supportLowerSeparationLayers,1
;   supportType,0
;   supportGridSpacing,3
;   maxOverhangAngle,60
;   supportAngles,0
;   temperatureName,Right Extruder,Left Extruder,Heated Build Platform
;   temperatureNumber,0,1,0
;   temperatureSetpointCount,1,1,1
;   temperatureSetpointLayers,1,1,1
;   temperatureSetpointTemperatures,0,200,50
;   temperatureStabilizeAtStartup,0,1,1
;   temperatureHeatedBed,0,0,1
;   temperatureRelayBetweenLayers,0,0,0
;   temperatureRelayBetweenLoops,0,0,0
;   fanLayers,1,2
;   fanSpeeds,0,100
;   blipFanToFullPower,0
;   adjustSpeedForCooling,1
;   minSpeedLayerTime,8
;   minCoolingSpeedSlowdown,20
;   increaseFanForCooling,0
;   minFanLayerTime,45
;   maxCoolingFanSpeed,100
;   increaseFanForBridging,1
;   bridgingFanSpeed,100
;   use5D,1
;   relativeEdistances,1
;   allowEaxisZeroing,0
;   independentExtruderAxes,1
;   includeM10123,0
;   stickySupport,1
;   applyToolheadOffsets,0
;   gcodeXoffset,0
;   gcodeYoffset,0
;   gcodeZoffset,0
;   overrideMachineDefinition,1
;   machineTypeOverride,0
;   strokeXoverride,225
;   strokeYoverride,145
;   strokeZoverride,150
;   originOffsetXoverride,110
;   originOffsetYoverride,70
;   originOffsetZoverride,0
;   homeXdirOverride,1
;   homeYdirOverride,1
;   homeZdirOverride,-1
;   flipXoverride,1
;   flipYoverride,-1
;   flipZoverride,1
;   toolheadOffsets,0,0|34,0|0,0|0,0|0,0|0,0
;   overrideFirmwareConfiguration,1
;   firmwareTypeOverride,MakerBot/Sailfish Firmware
;   GPXconfigOverride,r1d
;   baudRateOverride,115200
;   overridePrinterModels,1
;   printerModelsOverride,MakerBot_Replicator1.stl
;   startingGcode,; **** Replicator 1 dual start.gcode ****,M73 P0 ; Enable build progress,G162 X Y F3000 ; Home XY maximum,G161 Z F1200 ; Home Z minimum,G92 Z-5 ; Set Z to -5,G1 Z0 ; Move Z to 0,G161 Z F100 ; Home Z slowly,M132 X Y Z A B ; Recall home offsets,M135 T0 ; Load right extruder offsets,G1 X-120 Y-70 Z30 F9000 ; Move to wait position off table,G130 X20 Y20 Z20 A20 B20 ; Lower stepper Vrefs while heating,M126 S[fan_speed_pwm] ; Set fan speed,M140 S[bed0_temperature] T0 ; Heat buildplate ,M134 T0 ; Stabilize bed temperature,M104 S[extruder1_temperature] T1 ; Heat left extruder,M133 T1 ; Stabilize left extruder temperature,G130 X127 Y127 Z40 A127 B127 ; Default stepper Vrefs,G92 A0 B0 ; Zero extruders,M135 T1 ; Load left extruder offsets,G1 X-100 Y-68 F9000 ; Move to front left corner of bed,G1 Z0.3 F6000 ; Move down to purge,G1 X90 Y-68 E24 F2000 ; Extrude a line of filament across the front edge of the bed,G1 X100 Y-68 F180 ; Wait for ooze,G1 X110 Y-68 F5000 ; Fast wipe,G1 Z1 F100 ; Lift,G92 A0 B0 ; Zero extruders,M73 P1 ;@body (notify GPX body has started),; **** end of start.gcode ****
;   layerChangeGcode,
;   retractionGcode,
;   toolChangeGcode,
;   endingGcode,; **** Replicator 1 dual end.gcode ****,M73 P100 ; end build progress,G1 Z150 F1000 ; send Z axis to bottom of machine,M140 S0 T0 ; cool down HBP,M104 S0 T0 ; cool down right extruder,M104 S0 T1 ; cool down left extruder,M127 ; stop blower fan,G162 X Y F3000 ; home XY maximum,M18 ; disable stepper,M72 P1 ; play Ta-Da song,; **** end of end.gcode ****
;   createX3G,1
;   celebration,0
;   celebrationSong,Random Song
;   createMB5G,0
;   postProcessing,
;   defaultSpeed,6000
;   outlineUnderspeed,0.5
;   solidInfillUnderspeed,0.8
;   supportUnderspeed,0.8
;   rapidXYspeed,4200
;   rapidZspeed,1200
;   minBridgingArea,50
;   bridgingExtraInflation,0
;   bridgingExtrusionMultiplier,0.9
;   bridgingSpeedMultiplier,0.5
;   filamentDiameter,1.75
;   filamentPricePerKg,22
;   filamentDensity,1.25
;   useMinPrintHeight,0
;   minPrintHeight,0
;   useMaxPrintHeight,0
;   maxPrintHeight,0
;   useDiaphragm,0
;   diaphragmLayerInterval,20
;   robustSlicing,1
;   mergeAllIntoSolid,0
;   onlyRetractWhenCrossingOutline,0
;   retractBetweenLayers,1
;   useRetractionMinTravel,0
;   retractionMinTravel,3
;   retractWhileWiping,0
;   onlyWipeOutlines,1
;   avoidCrossingOutline,1
;   maxMovementDetourFactor,3
;   toolChangeRetractionDistance,12
;   toolChangeExtraRestartDistance,-0.5
;   toolChangeRetractionSpeed,600
;   allowThinWallGapFill,1
;   thinWallAllowedOverlapPercentage,10
;   horizontalSizeCompensation,0
G90
M83
; **** Replicator 1 dual start.gcode ****
M73 P0 ; Enable build progress
G162 X Y F3000 ; Home XY maximum
G161 Z F1200 ; Home Z minimum
G92 Z-5 ; Set Z to -5
G1 Z0 ; Move Z to 0
G161 Z F100 ; Home Z slowly
M132 X Y Z A B ; Recall home offsets
M135 T0 ; Load right extruder offsets
G1 X-120 Y-70 Z30 F9000 ; Move to wait position off table
G130 X20 Y20 Z20 A20 B20 ; Lower stepper Vrefs while heating
M127 ; Set fan speed
M140 S50 T0 ; Heat buildplate 
M134 T0 ; Stabilize bed temperature
M104 S200 T1 ; Heat left extruder
M133 T1 ; Stabilize left extruder temperature
G130 X127 Y127 Z40 A127 B127 ; Default stepper Vrefs
G92 A0 B0 ; Zero extruders
M135 T1 ; Load left extruder offsets
G1 X-100 Y-68 F9000 ; Move to front left corner of bed
G1 Z0.3 F6000 ; Move down to purge
G1 X90 Y-68 E24 F2000 ; Extrude a line of filament across the front edge of the bed
G1 X100 Y-68 F180 ; Wait for ooze
G1 X110 Y-68 F5000 ; Fast wipe
G1 Z1 F100 ; Lift
G92 A0 B0 ; Zero extruders
M73 P1 ;@body (notify GPX body has started)
; **** end of start.gcode ****
G1 E-1.0000 F1200
G1 Z0.200 F1200
; layer 1, Z = 0.2
M135 T1
; tool H0.200 W0.400
; skirt
G1 X-21.291 Y-21.227 F4200
G1 E1.0000 F360
G1 X-21.227 Y-21.291 E0.0030 F1800
G1 X-21.221 Y-21.296 E0.0003
G1 X-19.978 Y-22.474 E0.0570
G1 X-19.973 Y-22.478 E0.0002
G1 X-19.923 Y-22.523 E0.0022
G1 X-19.919 Y-22.527 E0.0002
G1 X-19.252 Y-23.109 E0.0294
G1 X-19.248 Y-23.113 E0.0002
G1 X-19.196 Y-23.156 E0.0022
G1 X-19.191 Y-23.160 E0.0002
G1 X-17.856 Y-24.232 E0.0570
G1 X-17.849 Y-24.237 E0.0003
G1 X-17.777 Y-24.292 E0.0030
G1 X-17.771 Y-24.296 E0.0003
G1 X-16.370 Y-25.301 E0.0573
G1 X-16.363 Y-25.305 E0.0003
G1 X-16.289 Y-25.356 E0.0030
G1 X-16.282 Y-25.360 E0.0003
G1 X-14.828 Y-26.287 E0.0573
G1 X-14.821 Y-26.291 E0.0003
G1 X-14.744 Y-26.337 E0.0030
G1 X-14.737 Y-26.342 E0.0003
G1 X-13.245 Y-27.182 E0.0570
G1 X-13.240 Y-27.185 E0.0002
G1 X-13.180 Y-27.217 E0.0022
G1 X-13.175 Y-27.220 E0.0002
G1 X-12.387 Y-27.622 E0.0294
G1 X-12.382 Y-27.625 E0.0002
G1 X-12.321 Y-27.654 E0.0022
G1 X-12.316 Y-27.657 E0.0002
G1 X-10.760 Y-28.373 E0.0570
G1 X-10.752 Y-28.376 E0.0003
G1 X-10.670 Y-28.412 E0.0030
G1 X-10.662 Y-28.415 E0.0003
G1 X-9.059 Y-29.049 E0.0573
G1 X-9.052 Y-29.052 E0.0003
G1 X-8.967 Y-29.083 E0.0030
G1 X-8.959 Y-29.085 E0.0003
G1 X-7.324 Y-29.632 E0.0573
G1 X-7.317 Y-29.634 E0.0003
G1 X-7.231 Y-29.660 E0.0030
G1 X-7.223 Y-29.662 E0.0003
G1 X-5.571 Y-30.116 E0.0570
G1 X-5.565 Y-30.117 E0.0002
G1 X-5.500 Y-30.134 E0.0022
G1 X-5.494 Y-30.135 E0.0002
G1 X-4.632 Y-30.334 E0.0294
G1 X-4.626 Y-30.336 E0.0002
G1 X-4.560 Y-30.350 E0.0022
G1 X-4.554 Y-30.351 E0.0002
G1 X-2.871 Y-30.668 E0.0570
G1 X-2.863 Y-30.669 E0.0003
G1 X-2.774 Y-30.683 E0.0030
G1 X-2.766 Y-30.685 E0.0003
G1 X-1.059 Y-30.911 E0.0573
G1 X-1.051 Y-30.912 E0.0003
G1 X-0.966 Y-30.921 E0.0029
G1 X-0.958 Y-30.922 E0.0003
G1 X0.761 Y-31.059 E0.0574
G1 X0.769 Y-31.059 E0.0003
G1 X0.863 Y-31.064 E0.0031
G1 X0.872 Y-31.064 E0.0003
G1 X2.456 Y-31.100 E0.0527
G1 X2.463 Y-31.100 E0.0002
G1 X2.537 Y-31.100 E0.0025
G1 X2.544 Y-31.100 E0.0002
G1 X4.128 Y-31.064 E0.0527
G1 X4.137 Y-31.064 E0.0003
G1 X4.231 Y-31.059 E0.0031
G1 X4.239 Y-31.059 E0.0003
G1 X5.958 Y-30.922 E0.0574
G1 X5.966 Y-30.921 E0.0003
G1 X6.051 Y-30.912 E0.0029
G1 X6.059 Y-30.911 E0.0003
G1 X7.755 Y-30.686 E0.0569
G1 X7.761 Y-30.685 E0.0002
G1 X7.828 Y-30.675 E0.0022
G1 X7.834 Y-30.674 E0.0002
G1 X8.705 Y-30.522 E0.0294
G1 X8.711 Y-30.521 E0.0002
G1 X8.777 Y-30.508 E0.0022
G1 X8.783 Y-30.507 E0.0002
G1 X10.458 Y-30.144 E0.0570
G1 X10.466 Y-30.142 E0.0003
G1 X10.554 Y-30.120 E0.0030
G1 X10.562 Y-30.118 E0.0003
G1 X12.251 Y-29.653 E0.0583
G1 X12.259 Y-29.651 E0.0003
G1 X12.345 Y-29.625 E0.0030
G1 X12.353 Y-29.622 E0.0003
G1 X13.987 Y-29.075 E0.0573
G1 X13.995 Y-29.072 E0.0003
G1 X14.078 Y-29.042 E0.0030
G1 X14.086 Y-29.039 E0.0003
G1 X15.663 Y-28.414 E0.0564
G1 X15.670 Y-28.411 E0.0003
G1 X15.752 Y-28.376 E0.0030
G1 X15.760 Y-28.373 E0.0003
G1 X17.316 Y-27.657 E0.0570
G1 X17.321 Y-27.654 E0.0002
G1 X17.382 Y-27.625 E0.0022
G1 X17.387 Y-27.622 E0.0002
G1 X18.175 Y-27.220 E0.0294
G1 X18.180 Y-27.217 E0.0002
G1 X18.240 Y-27.185 E0.0022
G1 X18.245 Y-27.182 E0.0002
G1 X19.737 Y-26.342 E0.0570
G1 X19.744 Y-26.337 E0.0003
G1 X19.821 Y-26.291 E0.0030
G1 X19.828 Y-26.287 E0.0003
G1 X21.282 Y-25.360 E0.0573
G1 X21.289 Y-25.356 E0.0003
G1 X21.363 Y-25.305 E0.0030
G1 X21.370 Y-25.301 E0.0003
G1 X22.762 Y-24.303 E0.0570
G1 X22.767 Y-24.299 E0.0002
G1 X22.821 Y-24.259 E0.0022
G1 X22.826 Y-24.255 E0.0002
G1 X23.523 Y-23.711 E0.0294
G1 X23.528 Y-23.707 E0.0002
G1 X23.580 Y-23.665 E0.0022
G1 X23.585 Y-23.661 E0.0002
G1 X24.890 Y-22.552 E0.0570
G1 X24.896 Y-22.547 E0.0003
G1 X24.963 Y-22.487 E0.0030
G1 X24.969 Y-22.482 E0.0003
G1 X26.221 Y-21.296 E0.0573
G1 X26.227 Y-21.291 E0.0003
G1 X26.291 Y-21.227 E0.0030
G1 X26.296 Y-21.221 E0.0003
G1 X27.482 Y-19.969 E0.0573
G1 X27.487 Y-19.963 E0.0003
G1 X27.547 Y-19.896 E0.0030
G1 X27.552 Y-19.890 E0.0003
G1 X28.668 Y-18.576 E0.0573
G1 X28.673 Y-18.570 E0.0003
G1 X28.729 Y-18.500 E0.0030
G1 X28.734 Y-18.493 E0.0003
G1 X29.770 Y-17.129 E0.0570
G1 X29.773 Y-17.124 E0.0002
G1 X29.813 Y-17.070 E0.0022
G1 X29.817 Y-17.065 E0.0002
G1 X30.322 Y-16.339 E0.0294
G1 X30.326 Y-16.334 E0.0002
G1 X30.363 Y-16.278 E0.0022
G1 X30.366 Y-16.272 E0.0002
G1 X31.287 Y-14.828 E0.0570
G1 X31.291 Y-14.821 E0.0003
G1 X31.337 Y-14.744 E0.0030
G1 X31.342 Y-14.737 E0.0003
G1 X32.182 Y-13.245 E0.0570
G1 X32.185 Y-13.240 E0.0002
G1 X32.217 Y-13.180 E0.0022
G1 X32.220 Y-13.175 E0.0002
G1 X32.622 Y-12.387 E0.0294
G1 X32.625 Y-12.382 E0.0002
G1 X32.654 Y-12.321 E0.0022
G1 X32.657 Y-12.316 E0.0002
G1 X33.373 Y-10.760 E0.0570
G1 X33.376 Y-10.752 E0.0003
G1 X33.412 Y-10.670 E0.0030
G1 X33.415 Y-10.662 E0.0003
G1 X34.049 Y-9.059 E0.0573
G1 X34.052 Y-9.052 E0.0003
G1 X34.083 Y-8.967 E0.0030
G1 X34.085 Y-8.959 E0.0003
G1 X34.632 Y-7.324 E0.0573
G1 X34.634 Y-7.317 E0.0003
G1 X34.660 Y-7.231 E0.0030
G1 X34.662 Y-7.223 E0.0003
G1 X35.119 Y-5.560 E0.0573
G1 X35.121 Y-5.552 E0.0003
G1 X35.142 Y-5.465 E0.0030
G1 X35.144 Y-5.457 E0.0003
G1 X35.507 Y-3.783 E0.0570
G1 X35.508 Y-3.777 E0.0002
G1 X35.521 Y-3.711 E0.0022
G1 X35.522 Y-3.705 E0.0002
G1 X35.674 Y-2.834 E0.0294
G1 X35.675 Y-2.828 E0.0002
G1 X35.685 Y-2.761 E0.0022
G1 X35.686 Y-2.755 E0.0002
G1 X35.911 Y-1.059 E0.0569
G1 X35.912 Y-1.051 E0.0003
G1 X35.921 Y-0.966 E0.0029
G1 X35.922 Y-0.958 E0.0003
G1 X36.059 Y0.761 E0.0574
G1 X36.059 Y0.769 E0.0003
G1 X36.064 Y0.863 E0.0031
G1 X36.064 Y0.872 E0.0003
G1 X36.100 Y2.456 E0.0527
G1 X36.100 Y2.463 E0.0002
G1 X36.100 Y2.537 E0.0025
G1 X36.100 Y2.544 E0.0002
G1 X36.064 Y4.128 E0.0527
G1 X36.064 Y4.137 E0.0003
G1 X36.059 Y4.231 E0.0031
G1 X36.059 Y4.239 E0.0003
G1 X35.922 Y5.958 E0.0574
G1 X35.921 Y5.966 E0.0003
G1 X35.912 Y6.051 E0.0029
G1 X35.911 Y6.059 E0.0003
G1 X35.686 Y7.755 E0.0569
G1 X35.685 Y7.761 E0.0002
G1 X35.675 Y7.828 E0.0022
G1 X35.674 Y7.834 E0.0002
G1 X35.522 Y8.705 E0.0294
G1 X35.521 Y8.711 E0.0002
G1 X35.508 Y8.777 E0.0022
G1 X35.507 Y8.783 E0.0002
G1 X35.144 Y10.457 E0.0570
G1 X35.142 Y10.465 E0.0003
G1 X35.121 Y10.552 E0.0030
G1 X35.119 Y10.560 E0.0003
G1 X34.662 Y12.223 E0.0573
G1 X34.660 Y12.231 E0.0003
G1 X34.634 Y12.317 E0.0030
G1 X34.632 Y12.324 E0.0003
G1 X34.085 Y13.959 E0.0573
G1 X34.083 Y13.967 E0.0003
G1 X34.052 Y14.052 E0.0030
G1 X34.049 Y14.059 E0.0003
G1 X33.419 Y15.652 E0.0570
G1 X33.416 Y15.657 E0.0002
G1 X33.390 Y15.720 E0.0022
G1 X33.388 Y15.725 E0.0002
G1 X33.029 Y16.534 E0.0294
G1 X33.027 Y16.539 E0.0002
G1 X32.998 Y16.600 E0.0022
G1 X32.995 Y16.606 E0.0002
G1 X32.237 Y18.141 E0.0570
G1 X32.234 Y18.149 E0.0003
G1 X32.192 Y18.228 E0.0030
G1 X32.188 Y18.235 E0.0003
G1 X31.347 Y19.727 E0.0570
G1 X31.344 Y19.733 E0.0002
G1 X31.310 Y19.791 E0.0022
G1 X31.306 Y19.796 E0.0002
G1 X30.841 Y20.548 E0.0294
G1 X30.838 Y20.553 E0.0002
G1 X30.801 Y20.610 E0.0022
G1 X30.798 Y20.615 E0.0002
G1 X29.845 Y22.024 E0.0566
G1 X29.841 Y22.029 E0.0002
G1 X29.802 Y22.084 E0.0022
G1 X29.799 Y22.089 E0.0002
G1 X29.274 Y22.801 E0.0294
G1 X29.270 Y22.806 E0.0002
G1 X29.229 Y22.859 E0.0022
G1 X29.225 Y22.864 E0.0002
G1 X28.153 Y24.200 E0.0570
G1 X28.148 Y24.206 E0.0003
G1 X28.090 Y24.275 E0.0030
G1 X28.084 Y24.281 E0.0003
G1 X26.933 Y25.564 E0.0573
G1 X26.928 Y25.570 E0.0003
G1 X26.866 Y25.636 E0.0030
G1 X26.860 Y25.641 E0.0003
G1 X25.649 Y26.852 E0.0570
G1 X25.645 Y26.857 E0.0002
G1 X25.596 Y26.903 E0.0022
G1 X25.592 Y26.908 E0.0002
G1 X24.942 Y27.507 E0.0294
G1 X24.937 Y27.511 E0.0002
G1 X24.886 Y27.556 E0.0022
G1 X24.882 Y27.560 E0.0002
G1 X23.576 Y28.668 E0.0570
G1 X23.570 Y28.673 E0.0003
G1 X23.500 Y28.729 E0.0030
G1 X23.493 Y28.734 E0.0003
G1 X22.120 Y29.777 E0.0573
G1 X22.113 Y29.781 E0.0003
G1 X22.040 Y29.834 E0.0030
G1 X22.034 Y29.838 E0.0003
G1 X20.606 Y30.804 E0.0573
G1 X20.599 Y30.809 E0.0003
G1 X20.523 Y30.857 E0.0030
G1 X20.516 Y30.861 E0.0003
G1 X19.038 Y31.748 E0.0573
G1 X19.031 Y31.752 E0.0003
G1 X18.953 Y31.796 E0.0030
G1 X18.945 Y31.800 E0.0003
G1 X17.421 Y32.605 E0.0573
G1 X17.414 Y32.609 E0.0003
G1 X17.333 Y32.649 E0.0030
G1 X17.326 Y32.652 E0.0003
G1 X15.769 Y33.368 E0.0570
G1 X15.764 Y33.371 E0.0002
G1 X15.700 Y33.399 E0.0023
G1 X15.695 Y33.401 E0.0002
G1 X14.851 Y33.748 E0.0303
G1 X14.845 Y33.750 E0.0002
G1 X14.782 Y33.774 E0.0022
G1 X14.776 Y33.776 E0.0002
G1 X13.167 Y34.361 E0.0569
G1 X13.160 Y34.364 E0.0003
G1 X13.075 Y34.392 E0.0030
G1 X13.068 Y34.394 E0.0003
G1 X11.445 Y34.887 E0.0564
G1 X11.437 Y34.890 E0.0003
G1 X11.351 Y34.913 E0.0030
G1 X11.343 Y34.915 E0.0003
